X:1
T: Black Pat's
C: Tommy Peoples
R: Reel
D: Lunasa, &quot;Otherworld&quot;
D: Tommy Peoples, &quot;The Quiet Glen&quot;
S: Spencer Nitchie <bnl@annap.infi.net> irtrad-l 2000-02-22
M: 4/4
L: 1/8
K: G
|: ~G3B e2dB | ADBA GEDE | GFGB edBA | (3Bcd gb a2ga |
bg~g2 aged | B2dB AGED | ~G3B eddB | ADBA     G2BA :|
~G3A GEDE | ~G3A    Be~e2 | d2BG  dGBG | AGBA GEDE |
~G3A GEDE | ~G3A (3Bcd ga | bg~g2 ageg | dgba g4  ||
 d3B BAGE | DEGA    Be~e2 | d2BG  dGBG | AGBA GEDE |
~G3A GEDE | ~G3A (3Bcd ga | bg~g2 ageg | dgba g4  ||
|: ~b3g egdg | gedB G4   | b2gd b2gd | eaag abga |
~b3g egdg | gedB dega | bgag eddB | AGGF G4  :|
